resources/svg/major-cancel.svg

<svg xmlns="http://www.w3.org/2000/svg" viewBox="0 0 20 20" fill="currentColor"><path d="M16.7071 4.70711C17.0976 4.31658 17.0976 3.68342 16.7071 3.29289C16.3166 2.90237 15.6834 2.90237 15.2929 3.29289L10 8.58579L4.70711 3.29289C4.31658 2.90237 3.68342 2.90237 3.29289 3.29289C2.90237 3.68342 2.90237 4.31658 3.29289 4.70711L8.58579 10L3.29289 15.2929C2.90237 15.6834 2.90237 16.3166 3.29289 16.7071C3.68342 17.0976 4.31658 17.0976 4.70711 16.7071L10 11.4142L15.2929 16.7071C15.6834 17.0976 16.3166 17.0976 16.7071 16.7071C17.0976 16.3166 17.0976 15.6834 16.7071 15.2929L11.4142 10L16.7071 4.70711Z" fill="#5C5F62"/></svg>

<svg xmlns="http://www.w3.org/2000/svg" viewBox="0 0 20 20" fill="currentColor"><path d="M16.707 4.707a1 1 0 0 0-1.414-1.414l-5.293 5.293-5.293-5.293a1 1 0 0 0-1.414 1.414l5.293 5.293-5.293 5.293a1 1 0 1 0 1.414 1.414l5.293-5.293 5.293 5.293a1 1 0 0 0 1.414-1.414l-5.293-5.293 5.293-5.293Z"/></svg>
